packages/Snapp/src/FilledPlusIcon/index.svg

<?xml version="1.0" encoding="UTF-8"?>
<svg width="24px" height="24px" viewBox="0 0 24 24" version="1.1" xmlns="http://www.w3.org/2000/svg" xmlns:xlink="http://www.w3.org/1999/xlink">
    <title>Icons/24/FilledPlus</title>
    <g id="Icons/24/FilledPlus" stroke="none" stroke-width="1" fill="none" fill-rule="evenodd">
        <g id="Plus" fill="#00D170" fill-rule="nonzero">
            <path d="M18,0 C21.3137085,-6.08718376e-16 24,2.6862915 24,6 L24,18 C24,21.3137085 21.3137085,24 18,24 L6,24 C2.6862915,24 4.05812251e-16,21.3137085 0,18 L0,6 C-4.05812251e-16,2.6862915 2.6862915,6.08718376e-16 6,0 L18,0 Z M12,4 C11.4477153,4 11,4.44771525 11,5 L11,5 L11,11 L5,11 C4.44771525,11 4,11.4477153 4,12 C4,12.5522847 4.44771525,13 5,13 L5,13 L11,13 L11,19 C11,19.5522847 11.4477153,20 12,20 C12.5522847,20 13,19.5522847 13,19 L13,19 L13,13 L19,13 C19.5522847,13 20,12.5522847 20,12 C20,11.4477153 19.5522847,11 19,11 L19,11 L13,11 L13,5 C13,4.44771525 12.5522847,4 12,4 Z" id="Combined-Shape"></path>
        </g>
    </g>
</svg>

<svg viewBox="0 0 24 24" xmlns="http://www.w3.org/2000/svg" fill="currentColor" focusable="false">
  <path d="M18 0a6 6 0 016 6v12a6 6 0 01-6 6H6a6 6 0 01-6-6V6a6 6 0 016-6h12zm-6 4a1 1 0 00-1 1v6H5a1 1 0 000 2h6v6a1 1 0 002 0v-6h6a1 1 0 000-2h-6V5a1 1 0 00-1-1z" fill="#00D170"/>
</svg>
